app/dist/common/images/cdw.svg

<svg height="18" width="18" xmlns="http://www.w3.org/2000/svg"><path d="m0 0h18v18h-18z" fill="#e31836"/><path d="m5.833 9.378c-.312 1.163-1.262 1.622-2.219 1.622-1.352 0-1.803-.812-1.544-2.016.217-1.183 1.106-1.984 2.41-1.984.974 0 1.715.39 1.462 1.696h-1.402c.089-.621-.054-.705-.24-.703-.396 0-.52.399-.65 1.007-.125.577-.185 1.007.2 1.007.197 0 .355-.116.549-.629zm2.007-1.47h.15c.245 0 .37.094.433.255.067.166.041.449-.038.837-.08.388-.17.67-.305.837a.64.64 0 0 1 -.538.255h-.15zm-2.127 3.092h1.9c1.186 0 2.098-.747 2.346-1.956.243-1.186-.074-2.044-1.619-2.044h-1.808zm4.584-4h1.367l-.189 2.511h.01l.874-2.511h1.58l-.156 2.511h.011l.839-2.511h1.367l-1.652 4h-1.656l.174-2.595h-.01l-.891 2.595h-1.655l-.014-4z" fill="#fff"/></svg>

<!-- by TradingView --><svg width="18" height="18" xmlns="http://www.w3.org/2000/svg"><path fill="#E31836" d="M0 0h18v18H0z"/><path d="M5.833 9.378C5.521 10.541 4.571 11 3.614 11c-1.352 0-1.803-.812-1.544-2.016C2.287 7.801 3.176 7 4.48 7c.974 0 1.715.39 1.462 1.696H4.54c.089-.621-.054-.705-.24-.703-.396 0-.52.399-.65 1.007-.125.577-.185 1.007.2 1.007.197 0 .355-.116.549-.629h1.434zM7.84 7.908h.15c.245 0 .37.094.433.255.067.166.041.449-.038.837-.08.388-.17.67-.305.837a.64.64 0 01-.538.255h-.15l.448-2.184zM5.713 11h1.9c1.186 0 2.098-.747 2.346-1.956C10.202 7.858 9.885 7 8.34 7H6.532l-.819 4zM10.297 7h1.367l-.189 2.511h.01L12.359 7h1.58l-.156 2.511h.011L14.633 7H16l-1.652 4h-1.656l.174-2.595h-.01L11.965 11h-1.655l-.014-4z" fill="#fff"/></svg>
